Numix/48/mimetypes/image-x-exr.svg

<?xml version="1.0" encoding="UTF-8" standalone="no"?>
<svg
   xmlns:dc="http://purl.org/dc/elements/1.1/"
   xmlns:cc="http://creativecommons.org/ns#"
   xmlns:rdf="http://www.w3.org/1999/02/22-rdf-syntax-ns#"
   xmlns:svg="http://www.w3.org/2000/svg"
   xmlns="http://www.w3.org/2000/svg"
   xmlns:sodipodi="http://sodipodi.sourceforge.net/DTD/sodipodi-0.dtd"
   xmlns:inkscape="http://www.inkscape.org/namespaces/inkscape"
   width="48"
   viewBox="0 0 48 48"
   height="48"
   id="svg2"
   version="1.1"
   inkscape:version="0.91 r13725"
   sodipodi:docname="application-x-exr_48.svg">
  <metadata
     id="metadata30">
    <rdf:RDF>
      <cc:Work
         rdf:about="">
        <dc:format>image/svg+xml</dc:format>
        <dc:type
           rdf:resource="http://purl.org/dc/dcmitype/StillImage" />
        <dc:title></dc:title>
      </cc:Work>
    </rdf:RDF>
  </metadata>
  <defs
     id="defs28" />
  <sodipodi:namedview
     pagecolor="#ffffff"
     bordercolor="#666666"
     borderopacity="1"
     objecttolerance="10"
     gridtolerance="10"
     guidetolerance="10"
     inkscape:pageopacity="0"
     inkscape:pageshadow="2"
     inkscape:window-width="1920"
     inkscape:window-height="1013"
     id="namedview26"
     showgrid="false"
     inkscape:zoom="22.627417"
     inkscape:cx="19.923176"
     inkscape:cy="6.5156175"
     inkscape:window-x="0"
     inkscape:window-y="27"
     inkscape:window-maximized="1"
     inkscape:current-layer="svg2">
    <inkscape:grid
       type="xygrid"
       id="grid4153" />
  </sodipodi:namedview>
  <path
     style="fill:#39a34f"
     d="M 8,1 C 6.9714285,1 6,1.9714285 6,3 l 0,42 c 0,0.971429 1.0285714,2 2,2 l 32,0 c 0.971429,0 2,-1.028571 2,-2 L 42,14 29,1 z"
     id="path4" />
  <path
     style="fill-opacity:.196"
     d="M 29,12 29.0625,12.0625 29.21875,12 29,12 z m 2,2 11,11 0,-11 -11,0 z"
     id="path6" />
  <path
     style="fill:#fff;fill-opacity:.392"
     d="m 29,1 13,13 -11,0 c -0.971429,0 -2,-1.028571 -2,-2 L 29,1 z"
     id="path8" />
  <path
     style="fill-opacity:.196"
     d="m 6,35 0,10 c 0,0.971429 1.0285714,2 2,2 l 32,0 c 0.971429,0 2,-1.028571 2,-2 l 0,-10 z"
     id="path10" />
  <g
     style="fill:#ffffff"
     id="g14">
    <path
       sodipodi:nodetypes="ccccccccccccccccc"
       inkscape:connector-curvature="0"
       id="path16"
       d="m 17.035431,16 c -0.563237,0.054 -1.045319,0.64805 -1.035277,1.28125 0,4.489583 0,8.979167 0,13.46875 0.0061,0.663 0.537592,1.2595 1.129393,1.25 l 13.772329,0 c 0.582514,-0.01 1.091927,-0.5974 1.098021,-1.25 l 0,-13.46875 C 32.00833,16.61825 31.493691,16.0069 30.901876,16 c -4.622148,0 -9.244297,0 -13.866445,0 z m 0.972534,2 11.984121,0 0,8.59375 -3.356809,-4.125 -2.384275,2.21875 -3.137205,-3.9375 -3.105832,3.1875 z"
       style="color:#000000;line-height:normal" />
  </g>
  <g
     id="g4165">
    <path
       d="m 15,45 0,-8 4.722922,0 0,1.318254 -3.173803,0 0,1.796447 2.758186,0 0,1.318256 -2.758186,0 0,2.248789 3.450881,0 L 20,45 15,45 Z"
       style="font-style:normal;font-variant:normal;font-weight:bold;font-stretch:normal;font-size:medium;line-height:125%;font-family:'Ubuntu Mono';-inkscape-font-specification:'Ubuntu Mono, Bold';text-align:start;letter-spacing:0px;word-spacing:0px;writing-mode:lr-tb;text-anchor:start;fill:#ffffff;fill-opacity:1;stroke:none;stroke-width:1px;stroke-linecap:butt;stroke-linejoin:miter;stroke-opacity:1"
       id="path4156"
       inkscape:connector-curvature="0" />
    <path
       d="M 25.330544,45 Q 25.09205,44.340873 24.740586,43.53958 24.401674,42.738287 24.025104,41.936995 23.661088,42.699516 23.297071,43.526656 22.933054,44.340873 22.669457,45 L 21,45 q 0.125523,-0.34895 0.364017,-0.840065 0.251046,-0.491114 0.539749,-1.059773 0.301255,-0.56866 0.627615,-1.163167 0.32636,-0.607431 0.627615,-1.163167 L 21.125523,37 22.794979,37 24.025104,39.558966 25.317992,37 l 1.556486,0 -1.983264,3.735057 q 0.338911,0.555734 0.665272,1.163166 0.326359,0.607431 0.60251,1.189014 0.288703,0.56866 0.502092,1.072698 Q 26.874478,44.65105 27,45 l -1.669456,0 z"
       style="font-style:normal;font-variant:normal;font-weight:bold;font-stretch:normal;font-size:medium;line-height:125%;font-family:'Ubuntu Mono';-inkscape-font-specification:'Ubuntu Mono, Bold';text-align:start;letter-spacing:0px;word-spacing:0px;writing-mode:lr-tb;text-anchor:start;fill:#ffffff;fill-opacity:1;stroke:none;stroke-width:1px;stroke-linecap:butt;stroke-linejoin:miter;stroke-opacity:1"
       id="path4158"
       inkscape:connector-curvature="0" />
    <path
       d="m 30.206897,37 q 0.731034,0 1.324138,0.153355 0.593102,0.153354 1.02069,0.472843 0.427585,0.319489 0.648275,0.817892 0.234482,0.485623 0.234482,1.150159 0,0.690096 -0.303448,1.252396 -0.303447,0.562301 -1.006897,0.85623 0.234484,0.332269 0.496552,0.741215 0.262069,0.396166 0.510345,0.84345 Q 33.379311,43.722045 33.6,44.169329 33.834483,44.603834 34,45 l -1.779311,0 q -0.31724,-0.766773 -0.744828,-1.469649 -0.413792,-0.715654 -0.89655,-1.444089 l -0.882759,0 0,2.913738 L 28,45 28,37.204473 q 0.248276,-0.05112 0.537931,-0.08946 0.303449,-0.05112 0.606897,-0.0639 0.303447,-0.02556 0.579309,-0.03834 Q 29.999999,37 30.206897,37 Z m 1.503448,2.58147 q 0,-0.626198 -0.413794,-0.920128 -0.413792,-0.29393 -1.089654,-0.29393 -0.09655,0 -0.234483,0.01278 -0.137931,0 -0.275862,0.02556 l 0,2.376997 0.372414,0 q 0.868965,0 1.255171,-0.30671 0.386208,-0.319488 0.386208,-0.894568 z"
       style="font-style:normal;font-variant:normal;font-weight:bold;font-stretch:normal;font-size:medium;line-height:125%;font-family:'Ubuntu Mono';-inkscape-font-specification:'Ubuntu Mono, Bold';text-align:start;letter-spacing:0px;word-spacing:0px;writing-mode:lr-tb;text-anchor:start;fill:#ffffff;fill-opacity:1;stroke:none;stroke-width:1px;stroke-linecap:butt;stroke-linejoin:miter;stroke-opacity:1"
       id="path4160"
       inkscape:connector-curvature="0" />
  </g>
</svg>

<svg xmlns="http://www.w3.org/2000/svg" viewBox="0 0 48 48">
 <path d="m 8 1 c -1.029 0 -2 0.971 -2 2 l 0 42 c 0 0.971 1.029 2 2 2 l 32 0 c 0.971 0 2 -1.029 2 -2 l 0 -31 -13 -13 z" style="fill:#39a34f"/>
 <path d="m 29 12 0.063 0.063 0.156 -0.063 -0.219 0 z m 2 2 11 11 0 -11 -11 0 z" style="fill-opacity:0.196"/>
 <path d="m 29 1 13 13 -11 0 c -0.971 0 -2 -1.029 -2 -2 l 0 -11 z" style="fill:#fff;fill-opacity:0.392"/>
 <path d="m 6 35 0 10 c 0 0.971 1.029 2 2 2 l 32 0 c 0.971 0 2 -1.029 2 -2 l 0 -10 z" style="fill-opacity:0.196"/>
 <g style="fill:#fff">
  <path d="m 17.04 16 c -0.563 0.054 -1.045 0.648 -1.035 1.281 0 4.49 0 8.979 0 13.469 0.006 0.663 0.538 1.26 1.129 1.25 l 13.772 0 c 0.583 -0.01 1.092 -0.597 1.098 -1.25 l 0 -13.469 c 0.008 -0.663 -0.506 -1.274 -1.098 -1.281 c -4.622 0 -9.244 0 -13.866 0 z m 0.973 2 11.984 0 0 8.594 -3.357 -4.125 -2.384 2.219 -3.137 -3.938 -3.106 3.188 z" style="color:#000"/>
 </g>
 <g>
  <path d="m 15 45 0 -8 4.723 0 0 1.318 -3.174 0 0 1.796 2.758 0 0 1.318 -2.758 0 0 2.249 3.451 0 l 0 1.318 -5 0" style="fill:#fff;fill-opacity:1;stroke:none"/>
  <path d="m 25.331 45 q -0.238 -0.659 -0.59 -1.46 -0.339 -0.801 -0.715 -1.603 -0.364 0.763 -0.728 1.59 -0.364 0.814 -0.628 1.473 l -1.669 0 q 0.126 -0.349 0.364 -0.84 0.251 -0.491 0.54 -1.06 0.301 -0.569 0.628 -1.163 0.326 -0.607 0.628 -1.163 l -2.033 -3.774 1.669 0 1.23 2.559 1.293 -2.559 l 1.556 0 -1.983 3.735 q 0.339 0.556 0.665 1.163 0.326 0.607 0.603 1.189 0.289 0.569 0.502 1.073 q 0.213 0.491 0.339 0.84 l -1.669 0 z" style="fill:#fff;fill-opacity:1;stroke:none"/>
  <path d="m 30.21 37 q 0.731 0 1.324 0.153 0.593 0.153 1.021 0.473 0.428 0.319 0.648 0.818 0.234 0.486 0.234 1.15 0 0.69 -0.303 1.252 -0.303 0.562 -1.01 0.856 0.234 0.332 0.497 0.741 0.262 0.396 0.51 0.843 q 0.248 0.435 0.469 0.882 0.234 0.435 0.4 0.831 l -1.779 0 q -0.317 -0.767 -0.745 -1.47 -0.414 -0.716 -0.897 -1.444 l -0.883 0 0 2.914 l -1.697 0 0 -7.796 q 0.248 -0.051 0.538 -0.089 0.303 -0.051 0.607 -0.064 0.303 -0.026 0.579 -0.038 q 0.276 -0.013 0.483 -0.013 m 1.503 2.581 q 0 -0.626 -0.414 -0.92 -0.414 -0.294 -1.09 -0.294 -0.097 0 -0.234 0.013 -0.138 0 -0.276 0.026 l 0 2.377 0.372 0 q 0.869 0 1.255 -0.307 0.386 -0.319 0.386 -0.895 z" style="fill:#fff;fill-opacity:1;stroke:none"/>
 </g>
</svg>
